src/pos-icons/video-switch-outline.svg

<svg height="24" viewBox="0 0 24 24" width="24" xmlns="http://www.w3.org/2000/svg"><path d="m8 13h4v2l3-3-3-3v2h-4v-2l-3 3 3 3zm10-3.5v-3.5c0-.6-.5-1-1-1h-14c-.5 0-1 .4-1 1v12c0 .5.5 1 1 1h14c.5 0 1-.5 1-1v-3.5l4 4v-13zm-2 7.5h-12v-10h12z"/></svg>

<?xml version="1.0" encoding="UTF-8"?><!DOCTYPE svg PUBLIC "-//W3C//DTD SVG 1.1//EN" "http://www.w3.org/Graphics/SVG/1.1/DTD/svg11.dtd"><svg xmlns="http://www.w3.org/2000/svg" xmlns:xlink="http://www.w3.org/1999/xlink" version="1.1" id="mdi-video-switch-outline" width="24" height="24" viewBox="0 0 24 24"><path d="M8 13H12V15L15 12L12 9V11H8V9L5 12L8 15V13M18 9.5V6C18 5.4 17.5 5 17 5H3C2.5 5 2 5.4 2 6V18C2 18.5 2.5 19 3 19H17C17.5 19 18 18.5 18 18V14.5L22 18.5V5.5L18 9.5M16 17H4V7H16V17Z" /></svg>
